src/icons/svg/storage.svg

<svg width="40px" height="39.9942604px" viewBox="0 0 40 39.9942604" version="1.1" xmlns="http://www.w3.org/2000/svg">
    <path d="M3.54262805,23.8896867 L9.88502798,23.8896867 C10.1535801,23.8896867 10.4021336,24.0096984 10.5706928,24.2211117 L14.5275505,29.2207513 C14.8070891,29.5808993 15.2372769,29.7917756 15.6931807,29.7921387 L24.3068455,29.7921387 C24.7639554,29.7921387 25.1867821,29.5835823 25.4724758,29.2207513 L29.4321904,24.2211117 C29.5969887,24.0102947 29.8502754,23.8878728 30.1178552,23.8896867 L36.4516843,23.8896867 C36.9316497,23.8896867 37.3259071,24.2811074 37.3259071,24.7639297 L37.3259071,35.4345891 L37.3144793,36.9459087 L2.68269005,36.9059116 L2.67411922,24.7639297 C2.67411922,24.2811074 3.06837652,23.8896867 3.54834191,23.8896867 M7.32806946,3.2197581 L32.7433802,3.2197581 C33.1519222,3.2197581 33.5033255,3.49974824 33.5947474,3.89971944 L37.0059301,19.0614836 C37.0644642,19.3204657 37.0013177,19.5919955 36.8345139,19.7985734 C36.6697522,20.007522 36.4177948,20.1287567 36.151706,20.1271211 L29.6321759,20.1271211 C29.1777404,20.125423 28.7478199,20.3330072 28.4665457,20.6899377 L24.5668268,25.6210108 C24.4025953,25.8325294 24.1489393,25.9551298 23.8811619,25.9524596 L16.1188643,25.9524596 C15.852088,25.9542361 15.5996768,25.8317269 15.4360564,25.6210108 L11.5420514,20.6899377 C11.2587154,20.3324516 10.8268551,20.124948 10.3707073,20.1271211 L3.85689108,20.1271211 C3.59145097,20.1257387 3.34091723,20.0042188 3.17550233,19.7966176 C3.01008744,19.5890163 2.94758959,19.317671 3.00552391,19.0586267 L6.47670225,3.89686251 C6.56650734,3.49938583 6.92057865,3.21779219 7.32806946,3.2197581 M39.954289,19.3014663 L35.1689197,1.111349 C35.0006424,0.456919356 34.4104556,-0.000416602079 33.7347373,2.84776508e-07 L6.32814152,2.84776508e-07 C5.6533033,2.84776508e-07 5.06277241,0.453755532 4.88824533,1.10563514 L0.0514511221,19.2986094 C0.0167630366,19.4242171 -0.000539701719,19.5539877 1.28250966e-05,19.6842959 L1.28250966e-05,38.5086532 C1.28250966e-05,39.3257372 0.668549519,39.9942604 1.48563346,39.9942604 L38.5115358,39.9942604 C39.3311824,39.9911394 39.9953043,39.3282922 40,38.5086532 L40,19.6814389 C39.9995406,19.5542041 39.9832256,19.4275226 39.951432,19.3043233"
          id="形状"></path>
</svg>

<svg width="40" height="39.994" xmlns="http://www.w3.org/2000/svg"><path d="M3.543 23.89h6.342a.87.87 0 0 1 .686.331l3.957 5c.28.36.71.57 1.165.571h8.614c.457 0 .88-.208 1.165-.571l3.96-5a.863.863 0 0 1 .686-.331h6.334c.48 0 .874.391.874.874v10.67l-.012 1.512-34.631-.04-.009-12.142c0-.483.394-.874.874-.874m3.78-20.67h25.415c.409 0 .76.28.852.68l3.41 15.161a.869.869 0 0 1-.17.738.863.863 0 0 1-.683.328h-6.52a1.477 1.477 0 0 0-1.165.563l-3.9 4.931a.857.857 0 0 1-.686.331H16.12a.857.857 0 0 1-.683-.331l-3.894-4.931a1.486 1.486 0 0 0-1.171-.563H3.857a.877.877 0 0 1-.851-1.068l3.47-15.162a.869.869 0 0 1 .852-.677M39.954 19.3L35.17 1.111A1.48 1.48 0 0 0 33.735 0H6.328c-.675 0-1.265.454-1.44 1.106L.051 19.299a1.426 1.426 0 0 0-.051.385V38.51a1.49 1.49 0 0 0 1.486 1.485h37.026A1.494 1.494 0 0 0 40 38.51V19.68c0-.127-.017-.253-.049-.377"/></svg>
